X:1
T:Title
%%score { 1 | 2 }
L:1/8
M:6/8
K:F
V:1 treble nm="Grand Piano"
V:2 bass 
V:1
 z3 z2[Q:1/4=78] C/F/ | A>AA AAA | A>GA [GB]2 C/[EG]/ | [GB]>[GB][GB] [GB][GB][GB] | %4
 [GB]>[FA][GB] [Ac]2 C/A/ | [Ac]>[GB]A AGF | E>DD D2 D/D/ | [DF]>[CE]D C<.FF |[M:5/8] E>FG F2 | %9
[M:1/8] [Ac] |[M:3/4] [Ac]>[GB] A A2 C | C>F A [GB]2 [GB]/[GB]/ | %12
 [GB]>[FA] [EG][B,CG] [A,CF][CEG] |[M:7/8] [CFA][CFA][CGB] [CAc]3 [Ac] |[M:3/4] [Ac]>[GB] AA GF | %15
[M:5/8] E>DD D2 |[M:1/8] D/D/ | %17
[M:3/4] [DF]>[CE] DC[Q:1/4=68] FF[Q:1/4=77][Q:1/4=76][Q:1/4=74][Q:1/4=73][Q:1/4=72][Q:1/4=71][Q:1/4=69][Q:1/4=67][Q:1/4=66][Q:1/4=65][Q:1/4=63][Q:1/4=62][Q:1/4=61][Q:1/4=60] | %18
[M:5/8] E>FG F2 |] %19
V:2
 z3 z2 [F,A,]/[F,A,C]/ | [F,CF]>[F,CF][F,CF] [F,CF][F,CF][F,CF] | %2
 [F,CF]>[F,CE][F,CF] [C,C]2 [C,G,]/[C,B,]/ | [C,C]>[C,C][C,C] [C,C][C,C][C,C] | %4
 [C,C]>[C,C][C,C] [F,C]2 [F,A,]/[F,CF]/ | [F,C]>[F,C][F,CF] [F,CF][F,B,C][F,A,C] | %6
 [B,,B,C]>[B,,F,B,][B,,F,B,] [B,,F,B,]2 [B,,F,B,]/[B,,F,B,]/ | %7
 [B,,B,]>[B,,B,][B,,F,B,] [C,F,A,]<.[C,A,C][C,A,C] |[M:5/8] [C,G,C]>[C,A,C][C,B,C] [F,A,C]2 | %9
[M:1/8] F, |[M:3/4] F,>F, [F,F] [F,C]2 [F,A,] | [F,A,]>[F,A,C] [F,CF] [C,C]2 [C,C]/[C,C]/ | %12
 [C,C]>[C,C] [C,C]C, C,C, |[M:7/8] F,F,F, F,3 F, |[M:3/4] F,>F, [F,CF][F,CF] [F,B,C][F,A,C] | %15
[M:5/8] [B,,B,C]>[B,,F,B,][B,,F,B,] [B,,F,B,]2 |[M:1/8] [B,,F,B,]/[B,,F,B,]/ | %17
[M:3/4] [B,,B,]>[B,,B,] [B,,F,B,][C,F,A,] [C,A,C][C,A,C] | %18
[M:5/8] [C,G,C]>[C,A,C][C,B,C] [F,A,C]2 |] %19

